X:1
T:Dilwyn, CM
T:Dilwyn, CM
T:Trad. English melody, arr by Ralph V. Williams
T:Public Domain Courtesy of the Cyber Hymnal™
C:Trad. English melody, arr by Ralph V. Williams
Z:Public Domain
Z:Courtesy of the Cyber Hymnal™
%%score ( 1 2 ) ( 3 4 )
L:1/8
Q:1/4=110
M:4/4
K:F
V:1 treble 
V:2 treble 
V:3 bass 
V:4 bass 
V:1
 F2 | [CF]2 [Cc][Cc] [Fc]2 BA | [FG]2 [EG]2 F2 [Fc][Fc] | [Ec]2 cA [Ec]2 cd | [Ec]6 [Ec]2 | %5
 c3 z [Fc]2 [Fd][Fd] | [Gc]2 cA [DF]2 [EA][EA] | [DB]2 AA [FG]2 [EG]2 | [CF]6 |] %9
V:2
 A,B, | x6 F2 | x8 | x2 D2 x F2 x | x8 | F2 (E2 A) x3 | x2 E2 x4 | x2 E2 x4 | x6 |] %9
V:3
 F,G, | [F,A,]2 [E,G,][E,G,] A,2 [C,C] x | [B,,D]2 CB, [F,,A,]2 [F,A,][G,B,] | %3
 [A,C]2 [F,D]2 [A,C]2 [D,A,]2 | [A,,A,]6 [C,G,]2 | [F,A,]2 [A,C]2 [F,A,]2 [D,A,][D,A,] | %6
 [E,G,]2 [C,C]2 [D,A,]2 [C,A,][C,A,] | [B,,D]2 [C,C][C,C] [D,B,]2 [C,C]2 | [F,,A,]6 |] %9
V:4
 F,2 | x4 D,3 B, | x2 C,2 x4 | x8 | x8 | x8 | x8 | x8 | x6 |] %9

